public/images/grid-bg.svg

<svg xmlns="http://www.w3.org/2000/svg" width="1081" height="681" fill="none"><path stroke="url(#a)" stroke-opacity=".1" stroke-width="1.334" d="M64.47 1H1v56.573M64.47 1v56.573M64.47 1h63.471m-63.47 56.573H1m63.47 0h63.471m-63.47 0v56.573M1 57.573v56.573M127.941 1v56.573m0-56.573h63.471m-63.471 56.573h63.471m-63.471 0v56.573M191.412 1v56.573m0-56.573h63.47m-63.47 56.573h63.47m-63.47 0v56.573M254.882 1v56.573m0-56.573h63.471m-63.471 56.573h63.471m-63.471 0v56.573M318.353 1v56.573m0-56.573h63.471m-63.471 56.573h63.471m-63.471 0v56.573M381.824 1v56.573m0-56.573h63.47m-63.47 56.573h63.47m-63.47 0v56.573M445.294 1v56.573m0-56.573h63.471m-63.471 56.573h63.471m-63.471 0v56.573M508.765 1v56.573m0-56.573h63.47m-63.47 56.573h63.47m-63.47 0v56.573M572.235 1v56.573m0-56.573h63.471m-63.471 56.573h63.471m-63.471 0v56.573M635.706 1v56.573m0-56.573h63.471m-63.471 56.573h63.471m-63.471 0v56.573M699.177 1v56.573m0-56.573h63.47m-63.47 56.573h63.47m-63.47 0v56.573M762.647 1v56.573m0-56.573h63.471m-63.471 56.573h63.471m-63.471 0v56.573M826.118 1v56.573m0-56.573h63.47m-63.47 56.573h63.47m-63.47 0v56.573M889.588 1v56.573m0-56.573h63.471m-63.471 56.573h63.471m-63.471 0v56.573M953.059 1v56.573m0-56.573h63.471m-63.471 56.573h63.471m-63.471 0v56.573M1016.53 1v56.573m0-56.573H1080v56.573m-63.47 0H1080m-63.47 0v56.573M1080 57.573v56.573m-1015.53 0H1m63.47 0h63.471m-63.47 0v56.573M1 114.146v56.573m126.941-56.573h63.471m-63.471 0v56.573m63.471-56.573h63.47m-63.47 0v56.573m63.47-56.573h63.471m-63.471 0v56.573m63.471-56.573h63.471m-63.471 0v56.573m63.471-56.573h63.47m-63.47 0v56.573m63.47-56.573h63.471m-63.471 0v56.573m63.471-56.573h63.47m-63.47 0v56.573m63.47-56.573h63.471m-63.471 0v56.573m63.471-56.573h63.471m-63.471 0v56.573m63.471-56.573h63.47m-63.47 0v56.573m63.47-56.573h63.471m-63.471 0v56.573m63.471-56.573h63.47m-63.47 0v56.573m63.47-56.573h63.471m-63.471 0v56.573m63.471-56.573h63.471m-63.471 0v56.573m63.471-56.573H1080m-63.47 0v56.573m63.47-56.573v56.573m-1015.53 0H1m63.47 0h63.471m-63.47 0v56.573M1 170.719v56.573m126.941-56.573h63.471m-63.471 0v56.573m63.471-56.573h63.47m-63.47 0v56.573m63.47-56.573h63.471m-63.471 0v56.573m63.471-56.573h63.471m-63.471 0v56.573m63.471-56.573h63.47m-63.47 0v56.573m63.47-56.573h63.471m-63.471 0v56.573m63.471-56.573h63.47m-63.47 0v56.573m63.47-56.573h63.471m-63.471 0v56.573m63.471-56.573h63.471m-63.471 0v56.573m63.471-56.573h63.47m-63.47 0v56.573m63.47-56.573h63.471m-63.471 0v56.573m63.471-56.573h63.47m-63.47 0v56.573m63.47-56.573h63.471m-63.471 0v56.573m63.471-56.573h63.471m-63.471 0v56.573m63.471-56.573H1080m-63.47 0v56.573m63.47-56.573v56.573m-1015.53 0H1m63.47 0h63.471m-63.47 0v56.573M1 227.292v56.573m126.941-56.573h63.471m-63.471 0v56.573m63.471-56.573h63.47m-63.47 0v56.573m63.47-56.573h63.471m-63.471 0v56.573m63.471-56.573h63.471m-63.471 0v56.573m63.471-56.573h63.47m-63.47 0v56.573m63.47-56.573h63.471m-63.471 0v56.573m63.471-56.573h63.47m-63.47 0v56.573m63.47-56.573h63.471m-63.471 0v56.573m63.471-56.573h63.471m-63.471 0v56.573m63.471-56.573h63.47m-63.47 0v56.573m63.47-56.573h63.471m-63.471 0v56.573m63.471-56.573h63.47m-63.47 0v56.573m63.47-56.573h63.471m-63.471 0v56.573m63.471-56.573h63.471m-63.471 0v56.573m63.471-56.573H1080m-63.47 0v56.573m63.47-56.573v56.573m-1015.53 0H1m63.47 0h63.471m-63.47 0v56.573M1 283.865v56.573m126.941-56.573h63.471m-63.471 0v56.573m63.471-56.573h63.47m-63.47 0v56.573m63.47-56.573h63.471m-63.471 0v56.573m63.471-56.573h63.471m-63.471 0v56.573m63.471-56.573h63.47m-63.47 0v56.573m63.47-56.573h63.471m-63.471 0v56.573m63.471-56.573h63.47m-63.47 0v56.573m63.47-56.573h63.471m-63.471 0v56.573m63.471-56.573h63.471m-63.471 0v56.573m63.471-56.573h63.47m-63.47 0v56.573m63.47-56.573h63.471m-63.471 0v56.573m63.471-56.573h63.47m-63.47 0v56.573m63.47-56.573h63.471m-63.471 0v56.573m63.471-56.573h63.471m-63.471 0v56.573m63.471-56.573H1080m-63.47 0v56.573m63.47-56.573v56.573m-1015.53 0H1m63.47 0h63.471m-63.47 0v56.573M1 340.438v56.573m126.941-56.573h63.471m-63.471 0v56.573m63.471-56.573h63.47m-63.47 0v56.573m63.47-56.573h63.471m-63.471 0v56.573m63.471-56.573h63.471m-63.471 0v56.573m63.471-56.573h63.47m-63.47 0v56.573m63.47-56.573h63.471m-63.471 0v56.573m63.471-56.573h63.47m-63.47 0v56.573m63.47-56.573h63.471m-63.471 0v56.573m63.471-56.573h63.471m-63.471 0v56.573m63.471-56.573h63.47m-63.47 0v56.573m63.47-56.573h63.471m-63.471 0v56.573m63.471-56.573h63.47m-63.47 0v56.573m63.47-56.573h63.471m-63.471 0v56.573m63.471-56.573h63.471m-63.471 0v56.573m63.471-56.573H1080m-63.47 0v56.573m63.47-56.573v56.573m-1015.53 0H1m63.47 0h63.471m-63.47 0v56.573M1 397.011v56.573m126.941-56.573h63.471m-63.471 0v56.573m63.471-56.573h63.47m-63.47 0v56.573m63.47-56.573h63.471m-63.471 0v56.573m63.471-56.573h63.471m-63.471 0v56.573m63.471-56.573h63.47m-63.47 0v56.573m63.47-56.573h63.471m-63.471 0v56.573m63.471-56.573h63.47m-63.47 0v56.573m63.47-56.573h63.471m-63.471 0v56.573m63.471-56.573h63.471m-63.471 0v56.573m63.471-56.573h63.47m-63.47 0v56.573m63.47-56.573h63.471m-63.471 0v56.573m63.471-56.573h63.47m-63.47 0v56.573m63.47-56.573h63.471m-63.471 0v56.573m63.471-56.573h63.471m-63.471 0v56.573m63.471-56.573H1080m-63.47 0v56.573m63.47-56.573v56.573m-1015.53 0H1m63.47 0h63.471m-63.47 0v56.573M1 453.584v56.573m126.941-56.573h63.471m-63.471 0v56.573m63.471-56.573h63.47m-63.47 0v56.573m63.47-56.573h63.471m-63.471 0v56.573m63.471-56.573h63.471m-63.471 0v56.573m63.471-56.573h63.47m-63.47 0v56.573m63.47-56.573h63.471m-63.471 0v56.573m63.471-56.573h63.47m-63.47 0v56.573m63.47-56.573h63.471m-63.471 0v56.573m63.471-56.573h63.471m-63.471 0v56.573m63.471-56.573h63.47m-63.47 0v56.573m63.47-56.573h63.471m-63.471 0v56.573m63.471-56.573h63.47m-63.47 0v56.573m63.47-56.573h63.471m-63.471 0v56.573m63.471-56.573h63.471m-63.471 0v56.573m63.471-56.573H1080m-63.47 0v56.573m63.47-56.573v56.573m-1015.53 0H1m63.47 0h63.471m-63.47 0v56.573M1 510.157v56.573m126.941-56.573h63.471m-63.471 0v56.573m63.471-56.573h63.47m-63.47 0v56.573m63.47-56.573h63.471m-63.471 0v56.573m63.471-56.573h63.471m-63.471 0v56.573m63.471-56.573h63.47m-63.47 0v56.573m63.47-56.573h63.471m-63.471 0v56.573m63.471-56.573h63.47m-63.47 0v56.573m63.47-56.573h63.471m-63.471 0v56.573m63.471-56.573h63.471m-63.471 0v56.573m63.471-56.573h63.47m-63.47 0v56.573m63.47-56.573h63.471m-63.471 0v56.573m63.471-56.573h63.47m-63.47 0v56.573m63.47-56.573h63.471m-63.471 0v56.573m63.471-56.573h63.471m-63.471 0v56.573m63.471-56.573H1080m-63.47 0v56.573m63.47-56.573v56.573m-1015.53 0H1m63.47 0h63.471m-63.47 0v56.573M1 566.73v56.573m126.941-56.573h63.471m-63.471 0v56.573m63.471-56.573h63.47m-63.47 0v56.573m63.47-56.573h63.471m-63.471 0v56.573m63.471-56.573h63.471m-63.471 0v56.573m63.471-56.573h63.47m-63.47 0v56.573m63.47-56.573h63.471m-63.471 0v56.573m63.471-56.573h63.47m-63.47 0v56.573m63.47-56.573h63.471m-63.471 0v56.573m63.471-56.573h63.471m-63.471 0v56.573m63.471-56.573h63.47m-63.47 0v56.573m63.47-56.573h63.471m-63.471 0v56.573m63.471-56.573h63.47m-63.47 0v56.573m63.47-56.573h63.471m-63.471 0v56.573m63.471-56.573h63.471m-63.471 0v56.573m63.471-56.573H1080m-63.47 0v56.573M1080 566.73v56.573m-1015.53 0H1m63.47 0h63.471m-63.47 0v56.573M1 623.303v56.573h63.47m63.471-56.573h63.471m-63.471 0v56.573m63.471-56.573h63.47m-63.47 0v56.573m63.47-56.573h63.471m-63.471 0v56.573m63.471-56.573h63.471m-63.471 0v56.573m63.471-56.573h63.47m-63.47 0v56.573m63.47-56.573h63.471m-63.471 0v56.573m63.471-56.573h63.47m-63.47 0v56.573m63.47-56.573h63.471m-63.471 0v56.573m63.471-56.573h63.471m-63.471 0v56.573m63.471-56.573h63.47m-63.47 0v56.573m63.47-56.573h63.471m-63.471 0v56.573m63.471-56.573h63.47m-63.47 0v56.573m63.47-56.573h63.471m-63.471 0v56.573m63.471-56.573h63.471m-63.471 0v56.573m63.471-56.573H1080m-63.47 0v56.573m63.47-56.573v56.573h-63.47m-952.06 0h63.471m0 0h63.471m0 0h63.47m0 0h63.471m0 0h63.471m0 0h63.47m0 0h63.471m0 0h63.47m0 0h63.471m0 0h63.471m0 0h63.47m0 0h63.471m0 0h63.47m0 0h63.471m0 0h63.471" opacity=".5"/><defs><radialGradient id="a" cx="0" cy="0" r="1" gradientTransform="matrix(0 583.797 -983.944 0 540.5 358.571)" gradientUnits="userSpaceOnUse"><stop stop-color="#001C64"/><stop offset="1" stop-color="#001C64" stop-opacity="0"/></radialGradient></defs></svg>

<svg width="1081" height="681" viewBox="0 0 1081 681" fill="none" xmlns="http://www.w3.org/2000/svg">
<path opacity="0.5" d="M64.4706 1H1V57.573M64.4706 1V57.573M64.4706 1H127.941M64.4706 57.573H1M64.4706 57.573H127.941M64.4706 57.573V114.146M1 57.573V114.146M127.941 1V57.573M127.941 1H191.412M127.941 57.573H191.412M127.941 57.573V114.146M191.412 1V57.573M191.412 1H254.882M191.412 57.573H254.882M191.412 57.573V114.146M254.882 1V57.573M254.882 1H318.353M254.882 57.573H318.353M254.882 57.573V114.146M318.353 1V57.573M318.353 1H381.824M318.353 57.573H381.824M318.353 57.573V114.146M381.824 1V57.573M381.824 1H445.294M381.824 57.573H445.294M381.824 57.573V114.146M445.294 1V57.573M445.294 1H508.765M445.294 57.573H508.765M445.294 57.573V114.146M508.765 1V57.573M508.765 1H572.235M508.765 57.573H572.235M508.765 57.573V114.146M572.235 1V57.573M572.235 1H635.706M572.235 57.573H635.706M572.235 57.573V114.146M635.706 1V57.573M635.706 1H699.177M635.706 57.573H699.177M635.706 57.573V114.146M699.177 1V57.573M699.177 1H762.647M699.177 57.573H762.647M699.177 57.573V114.146M762.647 1V57.573M762.647 1H826.118M762.647 57.573H826.118M762.647 57.573V114.146M826.118 1V57.573M826.118 1H889.588M826.118 57.573H889.588M826.118 57.573V114.146M889.588 1V57.573M889.588 1H953.059M889.588 57.573H953.059M889.588 57.573V114.146M953.059 1V57.573M953.059 1H1016.53M953.059 57.573H1016.53M953.059 57.573V114.146M1016.53 1V57.573M1016.53 1H1080V57.573M1016.53 57.573H1080M1016.53 57.573V114.146M1080 57.573V114.146M64.4706 114.146H1M64.4706 114.146H127.941M64.4706 114.146V170.719M1 114.146V170.719M127.941 114.146H191.412M127.941 114.146V170.719M191.412 114.146H254.882M191.412 114.146V170.719M254.882 114.146H318.353M254.882 114.146V170.719M318.353 114.146H381.824M318.353 114.146V170.719M381.824 114.146H445.294M381.824 114.146V170.719M445.294 114.146H508.765M445.294 114.146V170.719M508.765 114.146H572.235M508.765 114.146V170.719M572.235 114.146H635.706M572.235 114.146V170.719M635.706 114.146H699.177M635.706 114.146V170.719M699.177 114.146H762.647M699.177 114.146V170.719M762.647 114.146H826.118M762.647 114.146V170.719M826.118 114.146H889.588M826.118 114.146V170.719M889.588 114.146H953.059M889.588 114.146V170.719M953.059 114.146H1016.53M953.059 114.146V170.719M1016.53 114.146H1080M1016.53 114.146V170.719M1080 114.146V170.719M64.4706 170.719H1M64.4706 170.719H127.941M64.4706 170.719V227.292M1 170.719V227.292M127.941 170.719H191.412M127.941 170.719V227.292M191.412 170.719H254.882M191.412 170.719V227.292M254.882 170.719H318.353M254.882 170.719V227.292M318.353 170.719H381.824M318.353 170.719V227.292M381.824 170.719H445.294M381.824 170.719V227.292M445.294 170.719H508.765M445.294 170.719V227.292M508.765 170.719H572.235M508.765 170.719V227.292M572.235 170.719H635.706M572.235 170.719V227.292M635.706 170.719H699.177M635.706 170.719V227.292M699.177 170.719H762.647M699.177 170.719V227.292M762.647 170.719H826.118M762.647 170.719V227.292M826.118 170.719H889.588M826.118 170.719V227.292M889.588 170.719H953.059M889.588 170.719V227.292M953.059 170.719H1016.53M953.059 170.719V227.292M1016.53 170.719H1080M1016.53 170.719V227.292M1080 170.719V227.292M64.4706 227.292H1M64.4706 227.292H127.941M64.4706 227.292V283.865M1 227.292V283.865M127.941 227.292H191.412M127.941 227.292V283.865M191.412 227.292H254.882M191.412 227.292V283.865M254.882 227.292H318.353M254.882 227.292V283.865M318.353 227.292H381.824M318.353 227.292V283.865M381.824 227.292H445.294M381.824 227.292V283.865M445.294 227.292H508.765M445.294 227.292V283.865M508.765 227.292H572.235M508.765 227.292V283.865M572.235 227.292H635.706M572.235 227.292V283.865M635.706 227.292H699.177M635.706 227.292V283.865M699.177 227.292H762.647M699.177 227.292V283.865M762.647 227.292H826.118M762.647 227.292V283.865M826.118 227.292H889.588M826.118 227.292V283.865M889.588 227.292H953.059M889.588 227.292V283.865M953.059 227.292H1016.53M953.059 227.292V283.865M1016.53 227.292H1080M1016.53 227.292V283.865M1080 227.292V283.865M64.4706 283.865H1M64.4706 283.865H127.941M64.4706 283.865V340.438M1 283.865V340.438M127.941 283.865H191.412M127.941 283.865V340.438M191.412 283.865H254.882M191.412 283.865V340.438M254.882 283.865H318.353M254.882 283.865V340.438M318.353 283.865H381.824M318.353 283.865V340.438M381.824 283.865H445.294M381.824 283.865V340.438M445.294 283.865H508.765M445.294 283.865V340.438M508.765 283.865H572.235M508.765 283.865V340.438M572.235 283.865H635.706M572.235 283.865V340.438M635.706 283.865H699.177M635.706 283.865V340.438M699.177 283.865H762.647M699.177 283.865V340.438M762.647 283.865H826.118M762.647 283.865V340.438M826.118 283.865H889.588M826.118 283.865V340.438M889.588 283.865H953.059M889.588 283.865V340.438M953.059 283.865H1016.53M953.059 283.865V340.438M1016.53 283.865H1080M1016.53 283.865V340.438M1080 283.865V340.438M64.4706 340.438H1M64.4706 340.438H127.941M64.4706 340.438V397.011M1 340.438V397.011M127.941 340.438H191.412M127.941 340.438V397.011M191.412 340.438H254.882M191.412 340.438V397.011M254.882 340.438H318.353M254.882 340.438V397.011M318.353 340.438H381.824M318.353 340.438V397.011M381.824 340.438H445.294M381.824 340.438V397.011M445.294 340.438H508.765M445.294 340.438V397.011M508.765 340.438H572.235M508.765 340.438V397.011M572.235 340.438H635.706M572.235 340.438V397.011M635.706 340.438H699.177M635.706 340.438V397.011M699.177 340.438H762.647M699.177 340.438V397.011M762.647 340.438H826.118M762.647 340.438V397.011M826.118 340.438H889.588M826.118 340.438V397.011M889.588 340.438H953.059M889.588 340.438V397.011M953.059 340.438H1016.53M953.059 340.438V397.011M1016.53 340.438H1080M1016.53 340.438V397.011M1080 340.438V397.011M64.4706 397.011H1M64.4706 397.011H127.941M64.4706 397.011V453.584M1 397.011V453.584M127.941 397.011H191.412M127.941 397.011V453.584M191.412 397.011H254.882M191.412 397.011V453.584M254.882 397.011H318.353M254.882 397.011V453.584M318.353 397.011H381.824M318.353 397.011V453.584M381.824 397.011H445.294M381.824 397.011V453.584M445.294 397.011H508.765M445.294 397.011V453.584M508.765 397.011H572.235M508.765 397.011V453.584M572.235 397.011H635.706M572.235 397.011V453.584M635.706 397.011H699.177M635.706 397.011V453.584M699.177 397.011H762.647M699.177 397.011V453.584M762.647 397.011H826.118M762.647 397.011V453.584M826.118 397.011H889.588M826.118 397.011V453.584M889.588 397.011H953.059M889.588 397.011V453.584M953.059 397.011H1016.53M953.059 397.011V453.584M1016.53 397.011H1080M1016.53 397.011V453.584M1080 397.011V453.584M64.4706 453.584H1M64.4706 453.584H127.941M64.4706 453.584V510.157M1 453.584V510.157M127.941 453.584H191.412M127.941 453.584V510.157M191.412 453.584H254.882M191.412 453.584V510.157M254.882 453.584H318.353M254.882 453.584V510.157M318.353 453.584H381.824M318.353 453.584V510.157M381.824 453.584H445.294M381.824 453.584V510.157M445.294 453.584H508.765M445.294 453.584V510.157M508.765 453.584H572.235M508.765 453.584V510.157M572.235 453.584H635.706M572.235 453.584V510.157M635.706 453.584H699.177M635.706 453.584V510.157M699.177 453.584H762.647M699.177 453.584V510.157M762.647 453.584H826.118M762.647 453.584V510.157M826.118 453.584H889.588M826.118 453.584V510.157M889.588 453.584H953.059M889.588 453.584V510.157M953.059 453.584H1016.53M953.059 453.584V510.157M1016.53 453.584H1080M1016.53 453.584V510.157M1080 453.584V510.157M64.4706 510.157H1M64.4706 510.157H127.941M64.4706 510.157V566.73M1 510.157V566.73M127.941 510.157H191.412M127.941 510.157V566.73M191.412 510.157H254.882M191.412 510.157V566.73M254.882 510.157H318.353M254.882 510.157V566.73M318.353 510.157H381.824M318.353 510.157V566.73M381.824 510.157H445.294M381.824 510.157V566.73M445.294 510.157H508.765M445.294 510.157V566.73M508.765 510.157H572.235M508.765 510.157V566.73M572.235 510.157H635.706M572.235 510.157V566.73M635.706 510.157H699.177M635.706 510.157V566.73M699.177 510.157H762.647M699.177 510.157V566.73M762.647 510.157H826.118M762.647 510.157V566.73M826.118 510.157H889.588M826.118 510.157V566.73M889.588 510.157H953.059M889.588 510.157V566.73M953.059 510.157H1016.53M953.059 510.157V566.73M1016.53 510.157H1080M1016.53 510.157V566.73M1080 510.157V566.73M64.4706 566.73H1M64.4706 566.73H127.941M64.4706 566.73V623.303M1 566.73V623.303M127.941 566.73H191.412M127.941 566.73V623.303M191.412 566.73H254.882M191.412 566.73V623.303M254.882 566.73H318.353M254.882 566.73V623.303M318.353 566.73H381.824M318.353 566.73V623.303M381.824 566.73H445.294M381.824 566.73V623.303M445.294 566.73H508.765M445.294 566.73V623.303M508.765 566.73H572.235M508.765 566.73V623.303M572.235 566.73H635.706M572.235 566.73V623.303M635.706 566.73H699.177M635.706 566.73V623.303M699.177 566.73H762.647M699.177 566.73V623.303M762.647 566.73H826.118M762.647 566.73V623.303M826.118 566.73H889.588M826.118 566.73V623.303M889.588 566.73H953.059M889.588 566.73V623.303M953.059 566.73H1016.53M953.059 566.73V623.303M1016.53 566.73H1080M1016.53 566.73V623.303M1080 566.73V623.303M64.4706 623.303H1M64.4706 623.303H127.941M64.4706 623.303V679.876M1 623.303V679.876H64.4706M127.941 623.303H191.412M127.941 623.303V679.876M191.412 623.303H254.882M191.412 623.303V679.876M254.882 623.303H318.353M254.882 623.303V679.876M318.353 623.303H381.824M318.353 623.303V679.876M381.824 623.303H445.294M381.824 623.303V679.876M445.294 623.303H508.765M445.294 623.303V679.876M508.765 623.303H572.235M508.765 623.303V679.876M572.235 623.303H635.706M572.235 623.303V679.876M635.706 623.303H699.177M635.706 623.303V679.876M699.177 623.303H762.647M699.177 623.303V679.876M762.647 623.303H826.118M762.647 623.303V679.876M826.118 623.303H889.588M826.118 623.303V679.876M889.588 623.303H953.059M889.588 623.303V679.876M953.059 623.303H1016.53M953.059 623.303V679.876M1016.53 623.303H1080M1016.53 623.303V679.876M1080 623.303V679.876H1016.53M64.4706 679.876H127.941M127.941 679.876H191.412M191.412 679.876H254.882M254.882 679.876H318.353M318.353 679.876H381.824M381.824 679.876H445.294M445.294 679.876H508.765M508.765 679.876H572.235M572.235 679.876H635.706M635.706 679.876H699.177M699.177 679.876H762.647M762.647 679.876H826.118M826.118 679.876H889.588M889.588 679.876H953.059M953.059 679.876H1016.53" stroke="url(#paint0_radial_15_84)" stroke-opacity="0.1" stroke-width="1.33375"/>
<defs>
<radialGradient id="paint0_radial_15_84" cx="0" cy="0" r="1" gradientUnits="userSpaceOnUse" gradientTransform="translate(540.5 358.571) rotate(90) scale(583.797 983.944)">
<stop stop-color="#001C64"/>
<stop offset="1" stop-color="#001C64" stop-opacity="0"/>
</radialGradient>
</defs>
</svg>
